packages/core/src/svgs/tokens/branded/WELL.svg

<svg width="24" height="24" viewBox="0 0 24 24" fill="none" xmlns="http://www.w3.org/2000/svg">
<path d="M10.3355 19.3458C12.4229 19.3465 14.4457 18.6224 16.0583 17.2973C17.6712 15.9722 18.7738 14.1283 19.1781 12.0805C19.5823 10.0327 19.263 7.9081 18.2748 6.06954C17.2865 4.23099 15.6906 2.79257 13.7597 2C15.5655 2.33599 17.2454 3.15885 18.6178 4.37973C19.9904 5.60061 21.0032 7.17316 21.5474 8.92762C22.0915 10.682 22.1461 12.5519 21.7053 14.335C21.2645 16.1183 20.3451 17.7473 19.0462 19.0462C17.7473 20.345 16.1183 21.2645 14.335 21.7053C12.5519 22.1462 10.682 22.0915 8.92762 21.5474C7.17316 21.0033 5.60062 19.9904 4.37973 18.6178C3.15885 17.2454 2.33601 15.5656 2 13.7597C2.67898 15.4123 3.83398 16.8258 5.31818 17.8205C6.80239 18.8151 8.54881 19.3461 10.3355 19.3458Z" fill="#FFCE6C"/>
<path d="M19.3453 10.3355C19.3445 11.9932 18.8866 13.6186 18.0216 15.0328C17.1567 16.4469 15.9184 17.5951 14.4429 18.3509C12.9676 19.1067 11.3122 19.4407 9.65931 19.3165C8.00619 19.1922 6.41949 18.6142 5.07373 17.6463C5.88886 18.6354 6.90563 19.4393 8.05617 20.0041C9.20675 20.5691 10.4646 20.882 11.7457 20.9221C13.0268 20.9621 14.3017 20.7284 15.4853 20.2365C16.6689 19.7446 17.7339 19.0058 18.6091 18.0695C19.4845 17.1332 20.1501 16.0209 20.5612 14.807C20.9725 13.5931 21.1199 12.3052 20.994 11.0298C20.8678 9.7542 20.471 8.5203 19.8301 7.41034C19.1891 6.30038 18.3187 5.33993 17.2771 4.59314C18.5705 6.15527 19.339 8.15479 19.339 10.3418L19.3453 10.3355Z" fill="#FFF1B4"/>
<path d="M2.33765 11.2978C2.62507 13.5348 4.59961 18.1086 10.2233 18.4899C9.11725 11.9476 4.50587 10.9667 2.33765 11.2978Z" fill="#EFC705"/>
<path d="M18.6022 11.2978C18.3211 13.5348 16.3403 18.1086 10.7166 18.4899C11.8288 11.9476 16.4403 10.9667 18.6022 11.2978Z" fill="#0082E4"/>
<path d="M10.0728 16.3028C10.2666 16.7652 10.4227 17.4401 10.479 17.7212C10.7351 15.9904 12.1974 12.2788 15.9902 11.2728C15.9964 10.2731 15.8964 8.02353 15.459 6.94879C10.5164 9.20451 9.81035 14.1221 10.0728 16.3028Z" fill="#52C9C7"/>
<path d="M9.64174 15.2781C8.2046 12.4225 5.94264 11.4103 4.99288 11.2666C4.94914 10.473 4.98037 8.50473 5.48025 6.96759C8.57326 8.41725 9.95419 10.8792 10.2541 11.9352C9.85461 13.0046 9.64728 14.1363 9.64174 15.2781Z" fill="#ADD004"/>
<path d="M8.21729 8.34847C9.14899 9.24753 9.92216 10.2974 10.5042 11.454C10.8417 10.7603 11.7664 9.16078 12.7537 8.34847C12.4475 7.55491 11.579 5.7116 10.5042 4.6806C9.39831 5.69911 8.51722 7.55491 8.21729 8.34847Z" fill="#5CCC4E"/>
</svg>

<svg xmlns="http://www.w3.org/2000/svg" width="24" height="24" fill="none" viewBox="0 0 24 24">
    <path fill="#FFCE6C" d="M10.336 19.346A9.01 9.01 0 0 0 13.76 2 10.085 10.085 0 1 1 2 13.76a9.01 9.01 0 0 0 8.336 5.586"/>
    <path fill="#FFF1B4" d="M19.345 10.336a9.01 9.01 0 0 1-14.271 7.31A9.01 9.01 0 1 0 17.277 4.593a8.97 8.97 0 0 1 2.062 5.749z"/>
    <path fill="#EFC705" d="M2.338 11.298c.287 2.237 2.262 6.81 7.885 7.192-1.106-6.542-5.717-7.523-7.885-7.192"/>
    <path fill="#0082E4" d="M18.602 11.298c-.28 2.237-2.262 6.81-7.885 7.192 1.112-6.542 5.723-7.523 7.885-7.192"/>
    <path fill="#52C9C7" d="M10.073 16.303c.194.462.35 1.137.406 1.418.256-1.73 1.718-5.442 5.511-6.448.006-1-.094-3.25-.531-4.324-4.943 2.256-5.649 7.173-5.386 9.354"/>
    <path fill="#ADD004" d="M9.642 15.278c-1.437-2.856-3.7-3.868-4.65-4.011-.043-.794-.012-2.762.488-4.3 3.093 1.45 4.474 3.912 4.774 4.968a9.7 9.7 0 0 0-.612 3.343"/>
    <path fill="#5CCC4E" d="M8.217 8.348c.932.9 1.705 1.95 2.287 3.106.338-.694 1.262-2.293 2.25-3.106-.306-.793-1.175-2.636-2.25-3.667-1.106 1.018-1.987 2.874-2.287 3.667"/>
</svg>
